src/static/img/logo-supermarket.svg

<svg xmlns="http://www.w3.org/2000/svg" xmlns:xlink="http://www.w3.org/1999/xlink" width="500" zoomAndPan="magnify" viewBox="0 0 375 374.999991" height="500" preserveAspectRatio="xMidYMid meet" version="1.0"><defs><clipPath id="171f7b1257"><path d="M 37.53125 133 L 337.46875 133 L 337.46875 332 L 37.53125 332 Z M 37.53125 133 " clip-rule="nonzero"/></clipPath><clipPath id="9b312a6717"><path d="M 125 133 L 337.46875 133 L 337.46875 332 L 125 332 Z M 125 133 " clip-rule="nonzero"/></clipPath></defs><path stroke-linecap="butt" transform="matrix(0.75, 0, 0, 0.75, 170.525926, 152.82226)" fill="none" stroke-linejoin="miter" d="M 0.0018902 1.997403 L 160.001901 1.997403 " stroke="#000000" stroke-width="4" stroke-opacity="1" stroke-miterlimit="4"/><path fill="#4caf50" d="M 277.515625 119.5 C 276.570312 114.578125 275.402344 109.703125 275.402344 104.699219 L 275.402344 90.679688 C 275.402344 67.882812 258.515625 47.910156 235.804688 45.769531 C 209.75 43.316406 187.75 63.835938 187.75 89.402344 L 187.75 104.699219 C 187.75 109.703125 186.585938 114.578125 185.636719 119.5 C 185.570312 119.851562 185.535156 120.210938 185.535156 120.570312 C 185.535156 123.753906 188.117188 126.328125 191.292969 126.328125 C 194.46875 126.328125 197.042969 123.753906 197.042969 120.570312 C 197.042969 120.210938 197.011719 119.851562 196.941406 119.5 C 195.996094 114.578125 194.835938 109.703125 194.835938 104.699219 L 194.835938 90.472656 C 194.835938 71.347656 208.996094 54.621094 228.03125 52.824219 C 249.875 50.765625 268.316406 67.964844 268.316406 89.402344 L 268.316406 104.699219 C 268.316406 109.703125 267.160156 114.578125 266.210938 119.5 C 266.144531 119.851562 266.109375 120.210938 266.109375 120.570312 C 266.109375 123.753906 268.683594 126.328125 271.867188 126.328125 C 275.035156 126.328125 277.617188 123.753906 277.617188 120.570312 C 277.617188 120.210938 277.585938 119.851562 277.515625 119.5 Z M 277.515625 119.5 " fill-opacity="1" fill-rule="nonzero"/><g clip-path="url(#171f7b1257)"><path fill="#4caf50" d="M 337.21875 310.34375 L 310.277344 148.734375 C 308.804688 139.894531 301.148438 133.414062 292.179688 133.414062 L 170.972656 133.414062 C 162.003906 133.414062 154.347656 139.894531 152.878906 148.734375 L 149.507812 168.964844 C 148.886719 172.683594 145.667969 175.410156 141.898438 175.410156 L 85.800781 175.410156 C 82.417969 175.410156 79.671875 178.160156 79.671875 181.542969 C 79.671875 184.941406 82.417969 187.679688 85.800781 187.679688 L 201.089844 187.679688 C 204.480469 187.679688 207.226562 190.4375 207.226562 193.820312 C 207.226562 197.210938 204.480469 199.957031 201.089844 199.957031 L 43.664062 199.957031 C 40.28125 199.957031 37.53125 202.707031 37.53125 206.09375 C 37.53125 209.476562 40.28125 212.234375 43.664062 212.234375 L 212.136719 212.234375 C 215.527344 212.234375 218.277344 214.972656 218.277344 218.363281 C 218.277344 221.761719 215.527344 224.503906 212.136719 224.503906 L 89.480469 224.503906 C 86.097656 224.503906 83.351562 227.257812 83.351562 230.640625 C 83.351562 234.03125 86.097656 236.769531 89.480469 236.769531 L 189.0625 236.769531 C 192.453125 236.769531 195.199219 239.527344 195.199219 242.910156 C 195.199219 246.300781 192.453125 249.054688 189.0625 249.054688 L 65.351562 249.054688 C 61.960938 249.054688 59.210938 251.796875 59.210938 255.183594 C 59.210938 258.574219 61.960938 261.324219 65.351562 261.324219 L 125.003906 261.324219 C 129.769531 261.324219 133.398438 265.597656 132.613281 270.304688 L 125.9375 310.34375 C 124.070312 321.523438 132.695312 331.699219 144.03125 331.699219 L 319.121094 331.699219 C 330.457031 331.699219 339.082031 321.523438 337.21875 310.34375 Z M 337.21875 310.34375 " fill-opacity="1" fill-rule="nonzero"/></g><g clip-path="url(#9b312a6717)"><path fill="#1f2937" d="M 337.21875 310.34375 L 310.277344 148.734375 C 308.804688 139.894531 301.148438 133.414062 292.179688 133.414062 L 274.234375 133.414062 C 264.339844 133.414062 256.648438 142.035156 257.78125 151.867188 L 268.441406 244.433594 C 271.640625 272.171875 249.953125 296.507812 222.03125 296.507812 L 142.273438 296.507812 C 134.179688 296.507812 127.269531 302.355469 125.9375 310.34375 C 124.070312 321.523438 132.695312 331.699219 144.03125 331.699219 L 319.121094 331.699219 C 330.457031 331.699219 339.082031 321.523438 337.21875 310.34375 Z M 337.21875 310.34375 " fill-opacity="1" fill-rule="nonzero"/></g></svg>

<svg xmlns="http://www.w3.org/2000/svg" width="500" height="500" viewBox="0 0 375 375"><defs><clipPath id="c96b942a2d"><path d="M37.531 133H337.47v199H37.53Zm0 0"/></clipPath><clipPath id="da6c9e6ae2"><path d="M125 133h212.469v199H125Zm0 0"/></clipPath></defs><path fill="#4caf50" d="M277.516 119.5c-.946-4.922-2.114-9.797-2.114-14.8V90.68c0-22.797-16.886-42.77-39.597-44.91-26.055-2.454-48.055 18.066-48.055 43.632V104.7c0 5.004-1.164 9.88-2.113 14.801q-.101.529-.102 1.07a5.76 5.76 0 0 0 5.758 5.758 5.75 5.75 0 0 0 5.648-6.828c-.945-4.922-2.105-9.797-2.105-14.8V90.472c0-19.125 14.16-35.852 33.195-37.649 21.844-2.058 40.285 15.14 40.285 36.578V104.7c0 5.004-1.156 9.88-2.105 14.801q-.1.529-.102 1.07a5.753 5.753 0 1 0 11.508 0q.002-.541-.101-1.07m0 0"/><g clip-path="url(#c96b942a2d)"><path fill="#4caf50" d="m337.219 310.344-26.942-161.61c-1.472-8.84-9.129-15.32-18.097-15.32H170.973c-8.97 0-16.625 6.48-18.094 15.32l-3.371 20.23a7.72 7.72 0 0 1-7.61 6.446H85.801a6.135 6.135 0 0 0-6.13 6.133 6.13 6.13 0 0 0 6.13 6.137H201.09a6.143 6.143 0 0 1 6.137 6.14 6.135 6.135 0 0 1-6.137 6.137H43.664a6.14 6.14 0 0 0-6.133 6.137c0 3.383 2.75 6.14 6.133 6.14h168.473c3.39 0 6.14 2.739 6.14 6.13 0 3.398-2.75 6.14-6.14 6.14H89.48c-3.382 0-6.128 2.754-6.128 6.137a6.127 6.127 0 0 0 6.128 6.129h99.583a6.143 6.143 0 0 1 0 12.285H65.352c-3.391 0-6.141 2.742-6.141 6.129 0 3.39 2.75 6.14 6.14 6.14h59.653c4.766 0 8.394 4.274 7.61 8.98l-6.677 40.04c-1.867 11.18 6.758 21.355 18.094 21.355h175.09c11.336 0 19.961-10.176 18.098-21.355m0 0"/></g><g clip-path="url(#da6c9e6ae2)"><path fill="#1f2937" d="m337.219 310.344-26.942-161.61c-1.472-8.84-9.129-15.32-18.097-15.32h-17.946c-9.894 0-17.586 8.621-16.453 18.453l10.66 92.567c3.2 27.738-18.488 52.074-46.41 52.074h-79.758a16.56 16.56 0 0 0-16.335 13.836c-1.868 11.18 6.757 21.355 18.093 21.355h175.09c11.336 0 19.961-10.176 18.098-21.355m0 0"/></g><path fill="none" stroke="#000" stroke-width="3" d="M24.457 17.281h120"/></svg>
